i/popup.svg

<?xml version="1.0" encoding="UTF-8" standalone="no"?><!DOCTYPE svg PUBLIC "-//W3C//DTD SVG 1.1//EN" "http://www.w3.org/Graphics/SVG/1.1/DTD/svg11.dtd"><svg width="100%" height="100%" viewBox="0 0 24 24" version="1.1" xmlns="http://www.w3.org/2000/svg" xmlns:xlink="http://www.w3.org/1999/xlink" xml:space="preserve" xmlns:serif="http://www.serif.com/" style="fill-rule:evenodd;clip-rule:evenodd;stroke-linejoin:round;stroke-miterlimit:2;"><path d="M11.519,3.519L1.519,3.519L1.519,22.481L20.481,22.481L20.481,12.481L22.481,12.481L22.481,1.519L11.519,1.519L11.519,3.519Z" style="fill:#fff;fill-opacity:0.2;"/><path d="M21,11L21,3L13,3L13,5L17,5L17,7L15,7L15,9L13,9L13,11L11,11L11,13L9,13L9,15L11,15L11,13L13,13L13,11L15,11L15,9L17,9L17,7L19,7L19,11L21,11ZM11,5L3,5L3,21L19,21L19,13L17,13L17,19L5,19L5,7L11,7L11,5Z" style="fill-rule:nonzero;"/></svg>

<svg fill="none" xmlns="http://www.w3.org/2000/svg" viewBox="0 0 24 24"> <path d="M21 11V3h-8v2h4v2h-2v2h-2v2h-2v2H9v2h2v-2h2v-2h2V9h2V7h2v4h2zM11 5H3v16h16v-8h-2v6H5V7h6V5z" fill="currentColor"/> </svg>
